X: 106
T:Reconciliation Reel, The
M:C|
L:1/8
R:Reel
K:A
A2 (3cBA eAfA|eAfA ecBc|A2 (3cBA eAfA|ecBc AFEF|!
A2 (3cBA eAfA|eAfA ecBc|ABAF Ecdf|ecBc A2cB:|!
|:A2ce ~a3f|efed cdBc|A2ce a2ge|fbba gbeg|!
~a3e faec|dBcA BAFG|ABAF Ecdf|ecBc A2cB:|]!
